X:1
T:Gloria, 87.87 refrain
T:French Carol
T:Gloria, 87.87 refrain
T:Public Domain
C:French Carol
Z:Public Domain
%%score ( 1 2 ) ( 3 4 )
L:1/8
M:none
K:F
V:1 treble 
V:2 treble 
V:3 bass 
V:4 bass 
V:1
 [FA]2 [FA]2 [FA]2 (Ac) | G2 z B [FA]2 [CF]2 | [FA]2 [FA]2 [FA]2 ([FA][Ac]) | F2 z B [FA]4 | %4
 [FA]2 [FA]2 [FA]2 (Ac) | G2 z B [FA]2 [CF]2 | [FA]2 [F=B]2 [Ec]2 [Ad]2 | [Ge]4 [Fd]4 | [Ec]8 || %9
"^Refrain" [Ac]4 [Bd][Ac][GB][FA] | [GB]4 [Ac][GB][FA][EG] | [FA]4 [GB][FA][EG][DF] | %12
 E2 E-[EG] C4 | [CF]2 [EG]2 [FA]2 [FB]2 | [FA]4 [EG]4 | [Ac]4 [Bd][Ac][GB][FA] | %16
 [GB]4 [Ac][GB][FA][EG] | [FA]4 [GB][FA][EG][DF] | E2 D-[DG] C4 | [CF]2 [EG]2 [FA]2 [FB]2 | %20
 [FA]4 [EG]4 | F8 |] %22
V:2
 x6 F2 | c3 E2 x3 | x8 | c3 G2 x3 | x6 F2 | c3 E2 x3 | x8 | x8 | x8 || x8 | x8 | x8 | G3 x5 | x8 | %14
 x8 | x8 | x8 | x8 | G3 x5 | x8 | x8 | F8 |] %22
V:3
 [F,C]2 [F,C]2 [F,C]2 [F,C]2 | [F,C]2 [C,C]2 [F,C]2 [A,C]2 | [F,C]2 [F,C]2 [F,C]2 [F,C]2 | %3
 [F,C]2 [F,C]2 [F,C]4 | [F,C]2 [F,C]2 [F,C]2 [F,C]2 | [E,C]2 [C,C]2 [F,C]2 [F,A,]2 | %6
 [F,C]2 [D,D]2 [A,C]2 [F,C]2 | [G,C]4 (C2 =B,2) | [C,C]8 || [F,C-]8 | E,4 C,4 | F,4 E,F, G,2- | %12
 [G,C]2 [G,=B,]2 C2 B,2 | [F,A,]2 [C,C]2 [F,C]2 [B,,D]2 | [C,C]4 [C,C]4 | [F,C-]8 | E,4 C,4 | %17
 F,4 E,F, G,2- | [G,C]2 [G,=B,]2 C2 _B,2 | [F,A,]2 [C,C]2 [F,C]2 [B,,D]2 | [C,C]4 [C,B,]4 | %21
 [F,A,]8 |] %22
V:4
 x8 | x8 | x8 | x8 | x8 | x8 | x8 | x4 G,4 | x8 || x8 | C8- | C8 | x4 C,4 | x8 | x8 | x8 | C8- | %17
 C8 | x4 C,4 | x8 | x8 | x8 |] %22

